X:1
T:Title
L:1/8
Q:1/4=100
M:4/4
K:Eb
V:1 treble nm="Grand Piano"
V:1
 G G2 A G2 C2- | C G2 A G2 C2- | C G2 G A2 G2 | F8 | F F2 G F2 =B,2- | B, F2 G F2 =B,2- | %6
w: ????~???? * * * *||||||
 B, F2 F G2 F2 | E2 F2 G4 | c2 cc d2 c2- | c B2 B c2 B2- | B A2 A B2 A2 | G8 | c c2 c d2 c2- | %13
w: |||||||
 c B2 B c2 B2- | B A2 A B2 A2 | G8 |] %16
w: |||

